X: 1949
T: Arrival Of The Queen Of Sheba, The
R: reel
M: 4/4
K: Gmajor
V:1 name="Uilleann Pipes I"
d6 Bd g4B4|e4 d3c B4 z4|B6 Bd ^c6 Ae|
fede A2^c2 d2AB ABAB|A6 FA d6 Bd|c6 Ac B4 z4|
V:2 name="Uilleann Pipes II"
B6 dB G6 dB|A3G F2F2 G4 z4|G6 GB A6 e^c|
AGFG E2A2 F2FG FGFG|F6 DF G6 dg|A6 FA D4 z4|
V:3 name="Violin I II"
gdBd gdBd gdBd gdBd|Agfe dcBA BGAB cdef|gdBd gdBd g^cAc geAe|
fede A2^c2 d2AB ABAB|AFDF AFDF dBGB dBGB|cAFA cAFA BDEF GABc|
V:4 clef=tenor octave=-1 name="Viola" middle=c
B2d2d2d2 B2B2B2g2|g2a2a2d2 d4G4|d2d2e2e2 e2e2A2A2|
agfg e2A2 A4 d2A2|A2d2d2d2 G2G2G2G2|e2fe f2d2 d4 B4|
V:5 clef=bass octave=-2 name="Bassi" middle=d
g2g2f2f2 e2e2d2d2|c2c2d2d2 g4 G4|B2B2e2e2 A2A2^c2c2|
d2g2a2A2 d4 F2A2|d2d2c2c2 B2B2e2e2|A2A2d2d2 g4 G4|
V:1
d2B2d2B2 d2A2d2A2|B2G2B2G2 B2F2B2F2|g2e2g2e2 g2d2g2d2|
cded cBAG FGAG FEDC|B,2C2D2E2 F2G2A2B2|cdcd edcB ABAB cdcd|
V:2
B2G2B2G2 A2F2A2F2|G2E2G2E2 F2D2F2D2|e2c2e2c2 d2B2d2B2|
E2cd edcB AGFG AGFE|D2C2B,2E2 D2G2D2G2|ABAB cBAG FGFG ABAB|
V:3
"7"dBGB dBGB dAFA dAFA|BGEG BGEG BFDF BFDF|gece gece gdBd gdBd|
cded cBAG AGFG FEDC|B,DCE DFEG FAGB AcBd|cdcd edcB ABAB cdcd|
V:4
g2d2g2d2 f2d2f2d2|e2B2e2B2 d2B2d2B2|c2G2c2G2 B2g2B2g2|
e2cd edcB A2fg agfe|d2Ac G2G2 d2B2d2d2|e2e2a2e2 A2A2f2f2|
V:5
g2g2g2g2 f2f2f2f2|e2e2e2e2 d2d2d2d2|c2c2c2c2 B2B2B2B2|
A2A2A2c2 d2d2d2F2|G2A2B2c2 d2e2f2g2|c2c2c2c2 d2d2d2d2|
V:1
eded cBcB ABAB cdcd|eded cBcB ABAB cBcA|B4z4 z8|
z16|GABc B2A2 G2d4 c2|B2cB c2A2 Bcde d2c2|B2cB c2A2 B2A2 G4|
V:2
cBcB AGAG FGFG ABAB|cBcB AGAG FGFG AGAF|G4z4 z8|
z16|z8 GABc B2A2|G2AG A2F2 GABc B2A2|G2AG A2F2 G2D2 B,4|
V:3
"13"eded cBcB ABAB cdcd|eded cBcB ABAB cBcA|Bdce dfeg f2ed g2c2|
B2AG D2F2 G2D2 G,4|z16|z16|z16|
V:4
f2f2f2f2 f2f2f2f2|f2f2f2f2 f2f2f2f2|d2f2g2c2 a2f2d2e2|
d2e2d2c2 B4z4|z16|z16|z16|
V:5
d2d2d2d2 d2d2d2d2|d2d2d2d2 d2d2d2d2|G2A2B2c2 d2c2B2c2|
d2c2d2D2 G4z4|z16|z16|z16|
V:1
z16|z16|d4 edcB c2e4 e2|dcBd cBAc B2d4 d2|
cBAc BAGB A2d2 FGAB|A2d2 FGAB A2d2d2d2|d4z4 z8|z16|
V:2
z16|z16|B4 cBAG A2c4 c2|BAGB AGFA G2B4 B2|
AGFA GFEG F2A2 DEFG|F2A2 DEFG F2F2F2F2|F4z4 z8|z16|
V:3
gdBd gdBd gdBd gdBd|Agfe dcBA B2D2 G,4|z16|z16|
z16|z16|dAFA dAFA dAFA dAdf|ed^cB AGFE FDEF GABc|
V:4
B2d2B2d2 e2g2e2g2|e2g2f2f2 g4z4|z16|z16|
z16|z16|f2a2f2a2 f2d2f2A2|B2d2^c2c2 d2B2A2G2|
V:5
g2g2f2f2 e2e2d2d2|c2c2d2d2 G4z4|z16|z16|
z16|z16|d2d2^c2c2 B2B2A2A2|G2G2A2A2 d2G2F2E2|
V:1
defg f2e2 d2A4 G2|F2GF G2E2 FGAB A2^c2|d2ef g2e2 f2e2 d4|A2F2A2F2 A2E2A2E2|
f2d2f2d2 f2^c2f2c2|d2B2d2B2 d2A2d2A2|G2B2G2E2 ^c4 z2e2|(f2e2)(e2d2) (g2f2)(f2e2)|
V:2
FGAB A2G2 F2F4 E2|D2ED E2^C2 DEFG F2E2|F2GA B2^c2 d2A2 F4|F2D2 F2D2 E2^C2E2C2|
d2B2d2B2 ^c2A2c2A2|B2G2B2G2 A2F2A2F2|B2G2E2B2 A4 z2^c2|(d2^c2)(c2B2) (e2d2)(d2c2)|
V:3
d4 z4 z8|z16|z16|AFDF AFDF AE^CE AECA|
fdBd fdBd f^cAc fcAc|dBGB dBGB dAFA dAFA|GABA GFED ^C4z4|z16|
V:4
A4 z4 z8|z16|z16|d2A2d2A2 ^c2A2c2A2|
B2F2B2F2 a2f2a2f2|g2d2g2d2 f2d2f2d2|e2B2e2E2 E4z4|z16|
V:5
D4z4 z8|z16|z16|d2d2d2d2 ^c2c2c2c2|
B2B2B2B2 A2A2A2A2|G2G2G2G2 F2F2F2F2|E2E2E2E2 A4z4|z16|
V:1
(fgfe) (efed) (efed) (ded^c)|B^cBA GAGF E4 z4|z16|
z16|z16|Bcde d2c2 B2d4 c2|B2cB c2A2 B2A2 G4|
V:2
(ded^c) (cdcB) (cdcB) (BcBA)|GAGF EFED ^C4 z4|z16|
z16|z16|GABc B2A2 G2B4 A2|G2AG A2F2 G2D2 B,4|
V:3
z16|B^cBA GAGF EFEF GAGA|BABA GFGF EFEF GAGA|
BABA GFGF EFEF GAGA|F2d2 E2^c2 d2A2 D4|z16|z16|
V:4
z16|d2d2e2e2 e2e2^c2c2|^c2c2c2c2 c2c2c2c2|
^c2c2c2c2 c2c2c2c2|A2B2B2A2 A4 z4|z16|A16|
V:5
z16|G2G2G2G2 A2A2A2A2|A2A2A2A2 A2A2A2A2|
A2A2A2A2 A2A2A2A2|d2B2G2A2 D4 z4|z16|z16|
V:1
z16|z16|(B2A2)(A2G2) (c2B2)(B2A2)|(BcBA) (ABAG) (ABAG) (GAGF)|
GABc B2A2 G2g4 f2|e2fe f2^^d2 e2B2G2B2|e4z4 z8|z16|
V:2
z16|z16|(G2F2)(F2E2) (A2G2)(G2F2)|(GAGF) (FGFE) (FGFE) (EFE^C)|
EFGA G2F2 E2B4 A2|G2AG A2F2 G2E2B2G2|E4z4 z8|z16|
V:3
gdBd gdBd gdBd gdBd|
Agfe dcBA BGAB GB,CD|G,4z4 z8|z16|
z16|z16|eBGB eBGB eBGB eBeg|fe^^d^c BAGF GEFG ABcd|
V:4
B2d2B2d2 e2g2B2g2|e2g2f2f2 g4z4|z16|z16|
z16|z16|G2B2G2B2 c2e2g2G2|A2f2^^d2B2 B4z4|
V:5
g2g2f2f2 e2e2d2d2|c2c2d2d2 G4z4|z16|z16|
z16|z16|e2e2d2d2 c2c2B2B2|A2A2B2B2 E4z4|
V:1
B4E4 c4A4-|A2Bc d2A2 B4G4-|G2AB c2G2 A4F4-|F2GA B2F2 G2E4 FG|
A2F4 GA B2G4 AB|c2A2^G2A2 ^^d8|e2B2G2B2 e2dc B2A2|G4F4 E4z4|
V:2
B4E4 c4A4-|A2Bc d2A2 B4G4-|G2AB c2G2 A4F4-|F2GA B2F2 G2E4 FG|
A2F4 GA B2G4 AB|c2A2^G2A2 ^^d8|e2B2G2B2 E4E4|E4^^D4 E4z4|
V:3
e4z4 ecAc ecAc|d4z4 dBGB dBGB|c4z4 cAFA cAFA|B4z4 eBGB eBGB|
^^d4z4 BGEG BGEG|C4z4 f^^dBd fdBd|eBGB eBGB e2dc B2A2|G4F4 E4z4|
V:4
e2e2B2B2 e2e2c2c2|A2A2A2A2 d2d2B2B2|G2G2G2G2 c2c2A2A2|F2F2F2F2 B2B2B2B2|
A2A2^^d2d2 e2B2e2B2|e4z4 ^^d2f4d2|B2B2B2B2 c2e2e2e2|e4 ^^d3A G4z4|
V:5
^g2g2g2g2 A2A2A2A2|f2f2f2f2 g2g2g2g2|e2e2e2e2 f2f2f2f2|^^d2d2d2d2 e2e2e2e2|
f2f2f2f2 g2g2g2g2|a2c'2b2a2 b2b2a2a2|g2e2d2d2 c2c2G2A2|B2A2B2B,2 E4z4|
" pfec 9"
V:1
g2e2g2e2 g2d2g2d2|e2c2e2c2 e2B2e2B2|c2A2c2A2 c2G2c2G2|
A4B4 c4z4|E=FGA G2F2 E2e4d2|c2dc d2B2 c2g4=f2|e2=fe f2d2 e2d2 c4|
V:2
e2c2e2c2 d2B2d2B2|c2A2c2A2 B2G2B2G2|A2=F2A2F2 G2E2G2E2|
=F4D4 E4z4|CDE=F E2D2 C2G4F2|E2=FE F2D2 E2e4d2|c2dc d2B2 c2G2E2G2|
V:3
gece gece gdBd gdBd|ecAc ecAc eBGB eBGB|cA=FA cAFA cGEG cGEG|
=fedc BAG=F E2C2E2G2|C4z4 z8|z16|z16|
V:4
c'2g2c'2g2 b2g2b2g2|a2e2a2e2 g2e2g2e2|=f2c2f2c2 e2c2e2c2|
A4d4 G4z4|z16|z16|z16|
V:5
c'2c'2c'2c'2 b2b2b2b2|a2a2a2a2 g2g2g2g2|=f2f2f2f2 e2e2e2e2|
d2d2d2d2 c4z4|z16|z16|z16|
V:1
G2E2G2E2 A4z4|A2F2A2F2 B4z4|B2G2B2G2 c4z4|
c2A2c2A2 d4z4|Bcde d2c2 B2d4c2|B2cB c2A2 B2A2G2F2|B2A4G2 c2B4A2|
V:2
E4z4 E2^C2E2C2|F4z4 F2B,2F2B,2|G4z4 G2E2G2E2|
A4z4 A2D2A2D2|GABc B2A2 G2B4A2|G2AG A2F2 G2c2B2A2|G2F4E2 A2G4F2|
V:3
GECE GECE AE^CE AECE|AFDF AFDF BF^^DF BFDF|BGEG BGEG cGEG cGEG|
cA=FA cAFA dA^FA dAFA|B4z4 z8|z16|z16|
V:4
c2c2c2c2 A2A2A2A2|f2f2d2d2 B2B2B2B2|g2g2e2e2 c2c2c2c2|
a2a2=f2f2 d2d2d2d2|d4z4 z8|z16|z16|
V:5
c2c2c2c2 ^c2c2c2c2|d2d2d2d2 ^^d2d2d2d2|e2e2e2e2 e2e2e2e2|
=f2f2f2f2 ^f2f2f2f2|g4z4 z8|z16|z16|
" pfec 11"
V:1
Bcde d2G2 F2G4A2|Bcd4G2 FGA4B2|cde4A2 ^GAB4E2|A2Bc d2B2 c2^G2A4-|
A2Bc d2A2 B2F2G4-|G2=FE F2ED E2^FGA4-|A2GF G2FE F4z4|
V:2
GABc B2d2 D2E4F2|Bcd4G2 FGA4B2|cde4A2 ^GAB4E2|A2Bc d2B2 c2^G2A4-|
A2Bc d2A2 B2F2G4-|G2=FE F2ED E2^FG A4-|A2GF G2FE F4z4|
V:3
z16|gdBd gdBd F4z4|AECE AECE B,4z4|cAEA B^GEG A4z4|
AFDF AFDF G4z4|dBGB dBGB E4z4|e^cAc ecAc BFDF AFDF|
V:4
z16|d2g2B2B2 A2f2f2^g2|e2a4A2 B2^g2e2B2|e2e2^G2G2 e2e2c2c2|
d2d2f2f2 d2A2B2c2|d2d2B2B2 G2G2e2e2|e2e2^c2c2 f4d4|
V:5
z16|g2g2g2g2 d2d2d2d2|A2A2c2c2 e2e2^g2g2|a2a2e2e2 A2A2a2a2|
f2f2d2d2 G2G2G2A2|B2B2B2B2 c2c2c2c2|^c2c2c2c2 d4f4|
V:1
d2B2d2B2 d2A2d2A2|B2G2B2G2 B2F2B2F2|g2e2g2e2 g2d2g2d2|
cded cBAG FGAG FEDC|B,2C2D2E2 F2G2A2B2|cdcd edcB ABAB cdcd|
V:2
B2G2B2G2 A2F2A2F2|G2E2G2E2 F2D2F2D2|e2c2e2c2 d2B2d2B2|
E2cd edcB AGFG AGFE|D2C2B,2E2 D2G2D2G2|ABAB cBAG FGFG ABAB|
V:3
dBGB dBGB dAFA dAFA|BGEG BGEG BFDF BFDF|gece gece gdBd gdBd|
cded cBAG FGAG FEDC|B,DCE DFEG FAGB AcBd|cdcd edcB ABAB cdcd|
V:4
g2d2g2d2 f2d2f2d2|e2B2e2B2 d2B2d2B2|c2G2c2G2 B2g2B2g2|
e2cd edcB A2fg agfe|d2Ac G2G2 d2B2d2d2|e2e2a2e2 A2A2f2f2|
V:5
g2g2g2g2 f2f2f2f2|e2e2e2e2 d2d2d2d2|c2c2c2c2 B2B2B2B2|
A2A2A2c2 d2d2d2F2|G2A2B2c2 d2e2f2g2|c2c2c2c2 d2d2d2d2|
V:1
eded cBcB ABAB cdcd|eded cBcB ABAB cBcA|Bdce dfeg f2ed g2c2|B4A3G G4z4||
V:2
cBcB AGAG FGFG ABAB|cBcB AGAG FGFG AGAF|D2F2G2c2 A2F2d2G2|G4 F2C2 B,4z4||
V:3
eded cBcB ABAB cdcd|eded cBcB ABAB cBcA|Bdce dfeg f2ed g2c2|B2AG D2F2 G2G,2 z4|
V:4
f2f2f2f2 f2f2f2f2|f2f2f2f2 f2f2f2f2|d2f2g2c2 a2f2d2e2|d2e2d2c2 B4z4||
V:5
d2d2d2d2 d2d2d2d2|d2d2d2d2 d2d2d2d2|G2A2B2c2 d2c2B2c2|d2c2d2D2 G4z4||

